motocrosskursk/img/icons/compet-date.svg

<svg width="16" height="18" viewBox="0 0 16 18" fill="none" xmlns="http://www.w3.org/2000/svg">
<path fill-rule="evenodd" clip-rule="evenodd" d="M1 7V13C1 15.2091 2.79086 17 5 17H11C13.2091 17 15 15.2091 15 13V7C15 4.79086 13.2091 3 11 3H5C2.79086 3 1 4.79086 1 7Z" stroke="#F4520D" stroke-width="1.5" stroke-linecap="round" stroke-linejoin="round"/>
<path d="M9.25 4C9.25 4.41421 9.58579 4.75 10 4.75C10.4142 4.75 10.75 4.41421 10.75 4H9.25ZM10.75 1C10.75 0.585786 10.4142 0.25 10 0.25C9.58579 0.25 9.25 0.585786 9.25 1H10.75ZM5.25 4C5.25 4.41421 5.58579 4.75 6 4.75C6.41421 4.75 6.75 4.41421 6.75 4H5.25ZM6.75 1C6.75 0.585786 6.41421 0.25 6 0.25C5.58579 0.25 5.25 0.585786 5.25 1H6.75ZM11 7.75C11.4142 7.75 11.75 7.41421 11.75 7C11.75 6.58579 11.4142 6.25 11 6.25V7.75ZM5 6.25C4.58579 6.25 4.25 6.58579 4.25 7C4.25 7.41421 4.58579 7.75 5 7.75V6.25ZM11 10.75C11.4142 10.75 11.75 10.4142 11.75 10C11.75 9.58579 11.4142 9.25 11 9.25V10.75ZM5 9.25C4.58579 9.25 4.25 9.58579 4.25 10C4.25 10.4142 4.58579 10.75 5 10.75V9.25ZM8 13.75C8.41421 13.75 8.75 13.4142 8.75 13C8.75 12.5858 8.41421 12.25 8 12.25V13.75ZM5 12.25C4.58579 12.25 4.25 12.5858 4.25 13C4.25 13.4142 4.58579 13.75 5 13.75V12.25ZM10.75 4V1H9.25V4H10.75ZM6.75 4V1H5.25V4H6.75ZM11 6.25H5V7.75H11V6.25ZM11 9.25H5V10.75H11V9.25ZM8 12.25H5V13.75H8V12.25Z" fill="#F4520D"/>
</svg>

<svg width="16" height="18" fill="none" xmlns="http://www.w3.org/2000/svg"><path clip-rule="evenodd" d="M1 7v6a4 4 0 004 4h6a4 4 0 004-4V7a4 4 0 00-4-4H5a4 4 0 00-4 4z" stroke="#F4520D" stroke-width="1.5" stroke-linecap="round" stroke-linejoin="round"/><path d="M9.25 4a.75.75 0 001.5 0h-1.5zm1.5-3a.75.75 0 00-1.5 0h1.5zm-5.5 3a.75.75 0 001.5 0h-1.5zm1.5-3a.75.75 0 00-1.5 0h1.5zM11 7.75a.75.75 0 000-1.5v1.5zm-6-1.5a.75.75 0 000 1.5v-1.5zm6 4.5a.75.75 0 000-1.5v1.5zm-6-1.5a.75.75 0 000 1.5v-1.5zm3 4.5a.75.75 0 000-1.5v1.5zm-3-1.5a.75.75 0 000 1.5v-1.5zM10.75 4V1h-1.5v3h1.5zm-4 0V1h-1.5v3h1.5zM11 6.25H5v1.5h6v-1.5zm0 3H5v1.5h6v-1.5zm-3 3H5v1.5h3v-1.5z" fill="#F4520D"/></svg>
